X: 005
T: Tommy Joyce's (reel)
N: 201049
C: BB
L: 1/8
Q: 1/8=380
M: 4/4
R: reel
K: Edor
"Em"BEGA B2 Bc|"G"dB"A"cA "Bm"BAFA|"Em"BEGA B2 Bc|"D"dBcA "Em"GE E2|
"Em"BEGA B2 Bc|"G"dB"A"cA "Bm"BAFA|"Em"(3Bcd ef gfed|"D"BdAF "Em"GE E2 :|
"Em"efge Bege|"D"defd Adfd|"Em"efge Bega|"G"bg"D"af "Em"geeB|
"Em"efge Bege|"D"defg a2 ^ga|"G"bg"D"af "Em"gfed| "D"(3Bcd AF GE E2 :|
%%%%%%%%%%%%%%%%%%%%%%%%%%%%%%%%%%%%%%%%%%%
